!!!COM: Schiørring, Niels
!!!CDT: 1743-1798
!!!OPR@@DA: Choral-Bog
!!!ONM: 68
!!!OTL@@DA: Mit Haab og Trøſt og ald Tilliid
**kern	**fb	**kern	**kern	**kern	**kern	**kern	**kern	**kern
*part6	*part6	*part6	*part5	*part5	*part4	*part3	*part2	*part1
*staff8	*	*staff7	*staff6	*staff5	*staff4	*staff3	*staff2	*staff1
*clefF4	*	*clefC1	*clefF4	*clefC1	*clefF4	*clefC4	*clefC3	*clefC1
*mclefF4	*	*mclefG2	*mclefF4	*mclefG2	*mclefF4	*mclefGv2	*mclefG2	*mclefG2
*k[]	*	*k[]	*k[]	*k[]	*k[]	*k[]	*k[]	*k[]
*M3/2	*	*M3/2	*M3/2	*M3/2	*M3/2	*M3/2	*M3/2	*M3/2
*MM180	*	*MM180	*MM180	*MM180	*MM180	*MM180	*MM180	*MM180
*	*above	*	*	*	*	*	*	*
*	*slash	*	*	*	*	*	*	*
*	*	*	*^	*^	*	*	*	*
=1	=1	=1	=1	=1	=1	=1	=1	=1	=1	=1
2D	.	2d	2F	2D	2d	2A	2D	2F	2A	2d
=2	=2	=2	=2	=2	=2	=2	=2	=2	=2	=2
2F	6	1d	2F	2F	1d	2A	(2F	(2F	(2A	1d
2E	7	.	2G	2E	.	2G	2E)	2G)	2G)	.
2D	.	2d	2F	2D	2d	2A	2D	2F	2A	2d
=3	=3	=3	=3	=3	=3	=3	=3	=3	=3	=3
1C	6	1a	1E	1C	1a	2A	1C	1E	(2A	1a
.	.	.	.	.	.	2e	.	.	2e)	.
2BB	#6\	2dd	2G#X	2BB	2dd	2d	2BB	2G#X	2d	2dd
=4	=4	=4	=4	=4	=4	=4	=4	=4	=4	=4
2AA	.	1cc	1A	2AA	1cc	1e	2AA	1A	1e	1cc
*	*	*	*	*	*	*	*^	*	*	*
2E	6 4	.	.	1E	.	.	[2E	2E	.	.	.
2EE	5 #	2bm	2G#X	.	2bm	2e	2E]	2EE	2G#X	2dM	2bm
*	*	*	*	*	*	*	*v	*v	*	*	*
=5	=5	=5	=5	=5	=5	=5	=5	=5	=5	=5
*	*	*	*	*	*	*^	*	*	*	*
1AA;	.	1a;	1A;	1AA	1a;	1e	1c\	1AA;	1A;	1c;	1a;
*	*	*	*	*	*	*v	*v	*	*	*	*
2G	4	2a	2c#X>	2Gni	2a	2e	2G	2c#X	2e	2a
=6	=6	=6	=6	=6	=6	=6	=6	=6	=6	=6
1F	6	1dd	1d>	1F	1dd	1a	1F	1d	1a	1dd
2E	6 4	2cc	2e>	2E	2ccni	[2a	2E	2e	[2a	2cc
=7	=7	=7	=7	=7	=7	=7	=7	=7	=7	=7
2D#X	6 5	1b	2f#X>	2D#X	1b	2a]	(2D#X	(2f#X	(2a]	1b
2Dn	#4|	.	2e>	2Dn	.	2g#X	2Dn)	2e)	2g#X)	.
4C	6	2a	2e>	4C	2a	2a	(4C	2e	2a	2a
4D	.	.	.	4D	.	.	4D)	.	.	.
=8	=8	=8	=8	=8	=8	=8	=8	=8	=8	=8
1E	#	1.g#Xm	1.B	1.E	1.g#Xm	1.e	[1E	1.Bm	1.e	1.g#Xm
*	*	*	*	*	*	*	*^	*	*	*
2EE	.	.	.	.	.	.	2E]	2EE	.	.	.
=9	=9	=9	=9	=9	=9	=9	=9	=9	=9	=9	=9
*	*	*	*	*	*	*^	*	*	*	*	*
1AA;	.	1a;	1A;	1AA	1a;	1e	1c\	1AA;	1r	1c;	1e;	1a;
=10:|!	=10:|!	=10:|!	=10:|!	=10:|!	=10:|!	=10:|!	=10:|!	=10:|!	=10:|!	=10:|!	=10:|!	=10:|!
2D	.	2a	2A	2D	2a	2f	2r	2D	2r	2d	2f	2a
=11	=11	=11	=11	=11	=11	=11	=11	=11	=11	=11	=11	=11
1C#X	6	1a	1A	1C#X	1a	1e	1.r	1C#X	1.r	1A	1e	1a
2D	.	2fM	2A	2D	2fM	2d	.	2D	.	2A	2dM	2fM
=12	=12	=12	=12	=12	=12	=12	=12	=12	=12	=12	=12	=12
1AA;	#	1e;	1A;	1AA	1e;	1c#X	1.r	1A;	1AA	1A;	1c#X;	1e;
2BB-X	.	2d	2F	2BB-X	2d	2d	.	2B-X	2BB-X	2F	2d	2d
=13	=13	=13	=13	=13	=13	=13	=13	=13	=13	=13	=13	=13
1AA	6	1f	1F	1AA	1f	1cni	1.r	1A	1AA	1A	1cni	1f
2GG	6 -	2gM	2E	2GG	2g	2B-X	.	2G	2GG	2B-X	2em	2gM
=14	=14	=14	=14	=14	=14	=14	=14	=14	=14	=14	=14	=14
1FF;	.	1a;	1F;	1FF	1a;	1c	1A\	1F;	1FF	1c;	1f;	1a;
*	*	*	*	*	*	*v	*v	*	*	*	*	*
2EE	6	2cc	2e>	2EE	2cc	[2g	2E	2EE	2c	[2g	2cc
=15	=15	=15	=15	=15	=15	=15	=15	=15	=15	=15	=15
1FF	9	1a	1c>	1FF	1a	2g]	1F	1FF	1c	(2g]	1a
.	8	.	.	.	.	2.f	.	.	.	[2f)	.
2GG	7	2g	2B>	2GG	2g	.	2G	2GG	2B	(4f]	2g
.	6	.	.	.	.	4e	.	.	.	4e)	.
=16	=16	=16	=16	=16	=16	=16	=16	=16	=16	=16	=16
2AA	6 5	1f	2c>	2AA	1f	2e	(2A	2AA	2c	(2e	1f
2BB	6 5	.	1G	2BB	.	2d	2B)	2BB	1G	2d)	.
2C	.	2e	.	2C	2e	2c	2c	2C	.	2c	2e
*	*	*	*	*	*	*	*v	*v	*	*	*
=17	=17	=17	=17	=17	=17	=17	=17	=17	=17	=17
2F	6 5	1.dM	2A	2F	1.dM	1c	(2F	(2A	(1c	1.dM
2G	4	.	[2G	2G	.	.	2G	1G)	.	.
2GG	3	.	2G]	2GG	.	2B	2GG)	.	2B)	.
=18	=18	=18	=18	=18	=18	=18	=18	=18	=18	=18
1C;	.	1c;	1E;	1C	1c;	1G	1C;	1E;	1c;	1c;
2F	.	2a	2c	2F	2a	2f	2F	2F	2c	2a
=19	=19	=19	=19	=19	=19	=19	=19	=19	=19	=19
2B-X	.	1f	2d	2B-X	1f	1f	(2B-X	(2d	(2d	1f
2A	6	.	2c	2A	.	.	2A)	2c)	2f)	.
2G	6 -	2gM	2B-	2G	2gM	2e	2G	2B-X	2em	2gM
=20	=20	=20	=20	=20	=20	=20	=20	=20	=20	=20
*	*	*	*	*	*	*^	*	*	*	*
1F;	.	1a;	1A;	1F	1a;	1f	1c\	1F;	1c;	1f;	1a;
*	*	*	*	*	*	*v	*v	*	*	*	*
2C#X	6	2a	2A	2C#X	2a	2e	2C#X	2A	2e	2a
=21	=21	=21	=21	=21	=21	=21	=21	=21	=21	=21
2D	.	1f	1A	2D	1f	1d	(2D	1A	1d	1f
2Cni	2	.	.	2Cni	.	.	2Cni)	.	.	.
2BB-X	6	2gM	2G	2BB-X	2gM	[2d	2BB-X	[2d	2d	2gM
=22	=22	=22	=22	=22	=22	=22	=22	=22	=22	=22
1AA;	4	1a;	1E;	1AA	1a;	2d]	1AA;	(2d]	1e;	1a;
.	#	.	.	.	.	2c#X	.	2c#X)	.	.
2A	6	2cc	2cn	2A	2ccni	2f	2A	2c	2f	2cc
=23	=23	=23	=23	=23	=23	=23	=23	=23	=23	=23
2E	6	1cc	1c	2E	1cc	2g	(2E	1c	(2g	1cc
2C	.	.	.	2Cni	.	2e	2C)	.	2e)	.
2F	.	2a	2c	2F	2a	2f	2F	2c	2f	2a
=24	=24	=24	=24	=24	=24	=24	=24	=24	=24	=24
1C#X	5	1g	1A	1C#X	1g	1e	1C#X	1A	1e	1g
2D	.	2f	2A	2D	2f	2d	2D	2A	2d	2f
=25	=25	=25	=25	=25	=25	=25	=25	=25	=25	=25
2GG	6 5 -	1.em	2B-X>	2GG	1.em	1d	(2GG	(2B-X	(1d	1.em
1AA	4	.	2A	1AA	.	.	1AA)	2A	.	.
.	#	.	2G	.	.	2c#X	.	2G)	2c#X)	.
=26	=26	=26	=26	=26	=26	=26	=26	=26	=26	=26
1D;	.	1d;	1F;	1D	1d;	1A	1D;	1F;	1d;	1d;
*	*	*	*v	*v	*	*	*	*	*	*
*	*	*	*	*v	*v	*	*	*	*
==	==	==	==	==	==	==	==	==
*-	*-	*-	*-	*-	*-	*-	*-	*-
!!!system-decoration: {(s1,s2,s3,s4)}{(s5,s6)}{(s7,s8)}
!!!RDF**kern: i = editorial accidental, paren
!!!RDF**kern: > = above
!!!RDF**kern: < = below
!!!AGN: chorale
!!!EED: Derek Remeš
!!!EED2: Victor Phan
!!!END: 2023/11/28
!!!ENC: Wolfgang Drescher
!!!EEV: 2024/01/09
!!!title: @{ONM}. @{OTL}
!!!verovio: mnumInterval 1